X: 112
T: Miss Madalina Maxwell's Strathspey
R: strathspey
Q: "Slow"
B: William Shepherd "1st Collection" 1793 p.11 #2
F: http://imslp.org/wiki/File:PMLP73094-Shepherd_Collections_HMT.pdf
C: William Shepherd (17??-1812)
Z: 2012 John Chambers <jc:trillian.mit.edu>
M: C
L: 1/16
K: D
f2 |\
dd3d3A TF3GA2F2 | TE3DE2F2 TG3AB2c2 |\
Td3ed2A2 F3GA2A,2 | B,3B AGFE TF2D2D2 :|\
|: f2 | a3ba2f2 d3ef3d |
g3b B2gf edcB c2A2 |\
[1 a3ba3g f3ef3d | B3G E2AG TF2D2D2 :|\
[2 B3dA3d G3eF3d | EFGA cBAG TF2D2D2 |]
